svgs/aircade.svg

<svg width="192" height="192" viewBox="0 0 192 192" fill="none" xmlns="http://www.w3.org/2000/svg">
<path d="M74 89L42.6087 108M118 89L149.391 108M96 62.2892C107.046 62.2892 116 53.2701 116 42.1446C116 31.019 107.046 22 96 22C84.9543 22 76 31.019 76 42.1446C76 53.2701 84.9543 62.2892 96 62.2892ZM96 62.2892V108M42.6087 108L36 112V134L96 170L156 134V112L149.391 108M42.6087 108L96 138.5L149.391 108" stroke="#000" stroke-width="12" stroke-linecap="round" stroke-linejoin="round"/>
</svg>

<svg xmlns="http://www.w3.org/2000/svg" width="192" height="192" fill="none"><path stroke="#000" stroke-linecap="round" stroke-linejoin="round" stroke-width="12" d="m74 89-31.391 19M118 89l31.391 19M96 62.29c11.046 0 20-9.02 20-20.145S107.046 22 96 22s-20 9.019-20 20.145 8.954 20.144 20 20.144m0 0V108m-53.391 0L36 112v22l60 36 60-36v-22l-6.609-4m-106.782 0L96 138.5l53.391-30.5"/></svg>
